X: 1
T: Kohler's Hornpipe
T: Laybourne's Hornpipe
R: reel
B: K\"ohler's Violin Repository, v.1, 1885 p.66 #3 (unnamed hornpipe)
B: BSFC Session Tune Book 2016 p.32
S: from VOM 1991
N: arr. Andy Imbrie
M: 4/4
L: 1/8
K: C
G2 |\
"C"cBcd "G7"cdef | "C"g^fga "C7/E"gedc |\
"F"AGAB cdcA | "C"GEcA "C7/E"GECE | "F"FEFG "G"AGAB |
"C"cBcd "Am"egag | "F(Dm)"fedc "G"AcBd | "G7"eccB "C"c2 :|\
|: gf |\
"C"egcg egcg | "G"dgBg dgBg |
"Am"ceAe ceAe | "C/E"GcEc GcEc |\
"F"FEFG "G7"AGAB | "C"cBcd "Am"egag |\
"Dm(F)"fedc "G"AcBd | "G7"eccB "C"c2 :|
